public/images/hashed/0043d60cc00c6faf2594fc247131a958.svg

<?xml version="1.0" encoding="UTF-8"?>
<svg width="80px" height="80px" viewBox="0 0 80 80" version="1.1" xmlns="http://www.w3.org/2000/svg" xmlns:xlink="http://www.w3.org/1999/xlink">
    <title>Icon-Architecture/64/Arch_Amazon-Simple-Email-Service_64</title>
    <defs>
        <linearGradient x1="0%" y1="100%" x2="100%" y2="0%" id="linearGradient-1">
            <stop stop-color="#BD0816" offset="0%"></stop>
            <stop stop-color="#FF5252" offset="100%"></stop>
        </linearGradient>
    </defs>
    <g id="Icon-Architecture/64/Arch_Amazon-Simple-Email-Service_64" stroke="none" stroke-width="1" fill="none" fill-rule="evenodd">
        <g id="Rectangle" fill="url(#linearGradient-1)">
            <rect x="0" y="0" width="80" height="80"></rect>
        </g>
        <path d="M57,60.999875 C57,59.373846 55.626,57.9998214 54,57.9998214 C52.374,57.9998214 51,59.373846 51,60.999875 C51,62.625904 52.374,63.9999286 54,63.9999286 C55.626,63.9999286 57,62.625904 57,60.999875 L57,60.999875 Z M40,59.9998571 C38.374,59.9998571 37,61.3738817 37,62.9999107 C37,64.6259397 38.374,65.9999643 40,65.9999643 C41.626,65.9999643 43,64.6259397 43,62.9999107 C43,61.3738817 41.626,59.9998571 40,59.9998571 L40,59.9998571 Z M26,57.9998214 C24.374,57.9998214 23,59.373846 23,60.999875 C23,62.625904 24.374,63.9999286 26,63.9999286 C27.626,63.9999286 29,62.625904 29,60.999875 C29,59.373846 27.626,57.9998214 26,57.9998214 L26,57.9998214 Z M28.605,42.9995536 L51.395,42.9995536 L43.739,36.1104305 L40.649,38.7584778 C40.463,38.9194807 40.23,38.9994821 39.999,38.9994821 C39.768,38.9994821 39.535,38.9194807 39.349,38.7584778 L36.26,36.1104305 L28.605,42.9995536 Z M27,28.1732888 L27,41.7545313 L34.729,34.7984071 L27,28.1732888 Z M51.297,26.9992678 L28.703,26.9992678 L39.999,36.6824408 L51.297,26.9992678 Z M53,41.7545313 L53,28.1732888 L45.271,34.7974071 L53,41.7545313 Z M59,60.999875 C59,63.7099234 56.71,65.9999643 54,65.9999643 C51.29,65.9999643 49,63.7099234 49,60.999875 C49,58.6308327 50.75,56.5837961 53,56.1057876 L53,52.9997321 L41,52.9997321 L41,58.1058233 C43.25,58.5838319 45,60.6308684 45,62.9999107 C45,65.7099591 42.71,68 40,68 C37.29,68 35,65.7099591 35,62.9999107 C35,60.6308684 36.75,58.5838319 39,58.1058233 L39,52.9997321 L27,52.9997321 L27,56.1057876 C29.25,56.5837961 31,58.6308327 31,60.999875 C31,63.7099234 28.71,65.9999643 26,65.9999643 C23.29,65.9999643 21,63.7099234 21,60.999875 C21,58.6308327 22.75,56.5837961 25,56.1057876 L25,51.9997143 C25,51.4477044 25.447,50.9996964 26,50.9996964 L39,50.9996964 L39,44.9995893 L26,44.9995893 C25.447,44.9995893 25,44.5515813 25,43.9995714 L25,25.99925 C25,25.4472401 25.447,24.9992321 26,24.9992321 L54,24.9992321 C54.553,24.9992321 55,25.4472401 55,25.99925 L55,43.9995714 C55,44.5515813 54.553,44.9995893 54,44.9995893 L41,44.9995893 L41,50.9996964 L54,50.9996964 C54.553,50.9996964 55,51.4477044 55,51.9997143 L55,56.1057876 C57.25,56.5837961 59,58.6308327 59,60.999875 L59,60.999875 Z M68,39.9995 C68,45.9066055 66.177,51.5597064 62.727,56.3447919 L61.104,55.174771 C64.307,50.7316916 66,45.4845979 66,39.9995 C66,25.664244 54.337,14.0000357 40.001,14.0000357 C25.664,14.0000357 14,25.664244 14,39.9995 C14,45.4845979 15.693,50.7316916 18.896,55.174771 L17.273,56.3447919 C13.823,51.5597064 12,45.9066055 12,39.9995 C12,24.5612243 24.561,12 39.999,12 C55.438,12 68,24.5612243 68,39.9995 L68,39.9995 Z" id="Amazon-Simple-Email-Service_Icon_64_Squid" fill="#FFFFFF"></path>
    </g>
</svg>

<svg xmlns="http://www.w3.org/2000/svg" width="80" height="80"><defs><linearGradient id="a" x1="0%" x2="100%" y1="100%" y2="0%"><stop offset="0%" stop-color="#BD0816"/><stop offset="100%" stop-color="#FF5252"/></linearGradient></defs><g fill="none" fill-rule="evenodd"><path fill="url(#a)" d="M0 0h80v80H0z"/><path fill="#FFF" d="M57 61c0-1.626-1.374-3-3-3s-3 1.374-3 3 1.374 3 3 3 3-1.374 3-3Zm-17-1c-1.626 0-3 1.374-3 3s1.374 3 3 3 3-1.374 3-3-1.374-3-3-3Zm-14-2c-1.626 0-3 1.374-3 3s1.374 3 3 3 3-1.374 3-3-1.374-3-3-3Zm2.605-15h22.79l-7.656-6.89-3.09 2.648a.993.993 0 0 1-1.3 0L36.26 36.11 28.605 43ZM27 28.173v13.582l7.729-6.957L27 28.173ZM51.297 27H28.703l11.296 9.683L51.297 27ZM53 41.755V28.173l-7.729 6.624L53 41.755ZM59 61c0 2.71-2.29 5-5 5s-5-2.29-5-5c0-2.37 1.75-4.416 4-4.894V53H41v5.106c2.25.478 4 2.525 4 4.894 0 2.71-2.29 5-5 5s-5-2.29-5-5c0-2.37 1.75-4.416 4-4.894V53H27v3.106c2.25.478 4 2.525 4 4.894 0 2.71-2.29 5-5 5s-5-2.29-5-5c0-2.37 1.75-4.416 4-4.894V52a1 1 0 0 1 1-1h13v-6H26a1 1 0 0 1-1-1V26a1 1 0 0 1 1-1h28a1 1 0 0 1 1 1v18a1 1 0 0 1-1 1H41v6h13a1 1 0 0 1 1 1v4.106c2.25.478 4 2.525 4 4.894Zm9-21c0 5.907-1.823 11.56-5.273 16.345l-1.623-1.17A25.794 25.794 0 0 0 66 40c0-14.336-11.663-26-25.999-26C25.664 14 14 25.664 14 40a25.794 25.794 0 0 0 4.896 15.175l-1.623 1.17A27.783 27.783 0 0 1 12 39.999C12 24.561 24.561 12 39.999 12 55.438 12 68 24.561 68 40Z"/></g></svg>
